icons/svg/google.svg

﻿<?xml version="1.0" encoding="utf-8"?>
<!DOCTYPE svg PUBLIC "-//W3C//DTD SVG 1.1//EN" "http://www.w3.org/Graphics/SVG/1.1/DTD/svg11.dtd">
<svg xmlns="http://www.w3.org/2000/svg" xmlns:xlink="http://www.w3.org/1999/xlink" version="1.1" baseProfile="full" width="24" height="24" viewBox="0 0 24.00 24.00" enable-background="new 0 0 24.00 24.00" xml:space="preserve">
	<path fill="#000000" fill-opacity="1" stroke-width="1.33333" stroke-linejoin="miter" d="M 21.354,11.1036L 12.18,11.1036L 12.18,13.8258L 18.6862,13.8258C 18.3648,17.6432 15.1889,19.2711 12.191,19.2711C 8.35549,19.2711 5.00866,16.2534 5.00866,12.0236C 5.00866,7.90323 8.19906,4.72992 12.1994,4.72992C 15.2858,4.72992 17.1044,6.69742 17.1044,6.69742L 19.0105,4.72357C 19.0105,4.72357 16.564,2 12.102,2C 6.42078,2 2.02525,6.79543 2.02525,11.9751C 2.02525,17.0506 6.16002,22 12.2471,22C 17.601,22 21.5201,18.3323 21.5201,12.9091C 21.5201,11.7649 21.354,11.1036 21.354,11.1036L 21.354,11.1036 Z "/>
</svg>

<svg xmlns="http://www.w3.org/2000/svg" version="1.1" baseProfile="full" width="24" height="24" viewBox="0 0 24.00 24.00" xml:space="preserve"><path fill="#000" fill-opacity="1" stroke-width="1.333" stroke-linejoin="miter" d="M21.354 11.104H12.18v2.722h6.506c-.32 3.817-3.497 5.445-6.495 5.445-3.835 0-7.18-3.017-7.18-7.246 0-4.12 3.19-7.294 7.19-7.294 3.086 0 4.904 1.967 4.904 1.967l1.907-1.973S16.564 2 12.102 2C6.422 2 2.025 6.795 2.025 11.975 2.025 17.05 6.16 22 12.247 22c5.354 0 9.273-3.668 9.273-9.09 0-1.145-.166-1.806-.166-1.806z"/></svg>
